X:1001
T:The Montgomerie's Rant
P:Lady Montgomerie
C:Lord Eglintoune, 1796
R:Reel (8x32)
B:RSCDS 10-1
Z:Anselm Lingnau <anselm@strathspey.org>
M:C|
L:1/8
K:Bb
d|"Bb"B2 BF DEFD|B2 BG "F7"ABcd|"Bb"B2 BF DEFD|"Cm/Eb"CccB "F"ABcd|
  "Bb"B2 BF DEFD|BdBG "F7"ABcd|"Bb"BfdB FDFD|"Cm/Eb"CccB "F"ABcd||
  "Bb"B2 fB dB f2|B2 fB defb|B2 fB dB f2|"Eb"edcB "F7"ABcd|
  "Bb"B2 fB dB f2|Bbfe defg|"Bb"fd"F7/A"ec "Gm"dB"F"cA \
        |1 "Cm/Eb"BGFD "F7"Ccc:|2 "Cm/Eb"BGFD "Bb"B,2 z|]
